icon-svg/nest-mini.svg

<svg xmlns="http://www.w3.org/2000/svg" fill="#44739e" viewBox="0 0 24 24"><path d="M12.342 4.374h-.687v.984h.687zm9.624 7.013c-.434-3.3-4.467-6.029-9.976-6.029s-9.72 2.709-9.977 6.029c-.26 3.369 3.273 8.313 9.977 8.239 6.277-.07 10.434-4.745 9.976-8.239m-9.941-5.481c5.128.01 9.28 2.542 9.275 5.657-2.719 7.386-18.493 5.223-18.568-.033.005-3.115 4.168-5.63 9.293-5.624m-2.707 9.679c4.625.789 10.03-.371 11.481-4.11-.076-2.794-3.981-5.06-8.774-5.068H12c-4.828 0-8.756 2.293-8.765 5.12.026 1.81 2.471 3.441 6.083 4.058M14.07 8.8a.493.493 0 0 1 .539.427.553.553 0 0 1-1.078 0 .493.493 0 0 1 .539-.427m-1.337 0a.492.492 0 0 1 .538.427.553.553 0 0 1-1.077 0 .493.493 0 0 1 .539-.427m-1.394 0a.493.493 0 0 1 .539.427.553.553 0 0 1-1.077 0 .492.492 0 0 1 .538-.427m-1.393 0a.493.493 0 0 1 .539.427.493.493 0 0 1-.539.428.493.493 0 0 1-.539-.428.493.493 0 0 1 .539-.427"/></svg>

<?xml version="1.0" encoding="UTF-8"?>
<svg width="24px" fill="#44739e" height="24px" viewBox="0 0 24 24" version="1.1" xmlns="http://www.w3.org/2000/svg" xmlns:xlink="http://www.w3.org/1999/xlink">
            <path d="m 12.342,4.374 h -0.687 v 0.984 h 0.335 0.352 z m 9.624,7.013 c -0.434,-3.3 -4.467,-6.029 -9.976,-6.029 -5.509,0 -9.72,2.709 -9.977,6.029 -0.26,3.369 3.273,8.313 9.977,8.239 6.277,-0.07 10.434,-4.745 9.976,-8.239 z M 12.025,5.906 c 5.128,0.01 9.28,2.542 9.275,5.657 C 18.581,18.949 2.807,16.786 2.732,11.53 2.737,8.415 6.9,5.9 12.025,5.906 Z m -2.707,9.679 c 4.625,0.789 10.03,-0.371 11.481,-4.11 C 20.723,8.681 16.818,6.415 12.025,6.407 H 12 c -4.828,0 -8.756,2.293 -8.765,5.12 0.026,1.81 2.471,3.441 6.083,4.058 z M 14.07,8.8 a 0.493,0.493 0 0 1 0.539,0.427 0.553,0.553 0 0 1 -1.078,0 A 0.493,0.493 0 0 1 14.07,8.8 Z m -1.337,0 a 0.492,0.492 0 0 1 0.538,0.427 0.553,0.553 0 0 1 -1.077,0 0.493,0.493 0 0 1 0.539,-0.427 z m -1.394,0 a 0.493,0.493 0 0 1 0.539,0.427 0.553,0.553 0 0 1 -1.077,0 0.492,0.492 0 0 1 0.538,-0.427 z m -1.393,0 A 0.493,0.493 0 0 1 10.485,9.227 0.493,0.493 0 0 1 9.946,9.655 0.493,0.493 0 0 1 9.407,9.227 0.493,0.493 0 0 1 9.946,8.8 Z"/>

</svg>
